raw/mushroom.svg

<?xml version="1.0" encoding="UTF-8" standalone="no"?>
<!-- Created with Inkscape (http://www.inkscape.org/) -->

<svg
   width="192mm"
   height="192mm"
   viewBox="0 0 192 192"
   version="1.1"
   id="svg1"
   xml:space="preserve"
   inkscape:version="1.3.2 (091e20e, 2023-11-25, custom)"
   sodipodi:docname="mushroom.svg"
   inkscape:export-filename="..\assets\sprites\mushroom.png"
   inkscape:export-xdpi="25.4"
   inkscape:export-ydpi="25.4"
   xmlns:inkscape="http://www.inkscape.org/namespaces/inkscape"
   xmlns:sodipodi="http://sodipodi.sourceforge.net/DTD/sodipodi-0.dtd"
   xmlns:xlink="http://www.w3.org/1999/xlink"
   xmlns="http://www.w3.org/2000/svg"
   xmlns:svg="http://www.w3.org/2000/svg"><sodipodi:namedview
     id="namedview1"
     pagecolor="#ffffff"
     bordercolor="#999999"
     borderopacity="1"
     inkscape:showpageshadow="0"
     inkscape:pageopacity="0"
     inkscape:pagecheckerboard="0"
     inkscape:deskcolor="#d1d1d1"
     inkscape:document-units="mm"
     inkscape:zoom="1.0570195"
     inkscape:cx="264.42275"
     inkscape:cy="416.73782"
     inkscape:window-width="2560"
     inkscape:window-height="1017"
     inkscape:window-x="1912"
     inkscape:window-y="-8"
     inkscape:window-maximized="1"
     inkscape:current-layer="layer1" /><defs
     id="defs1"><linearGradient
       id="linearGradient18"
       inkscape:collect="always"><stop
         style="stop-color:#f6deb6;stop-opacity:1;"
         offset="0"
         id="stop19" /><stop
         style="stop-color:#edbc62;stop-opacity:1;"
         offset="1"
         id="stop18" /></linearGradient><linearGradient
       id="linearGradient14"
       inkscape:collect="always"><stop
         style="stop-color:#f7908a;stop-opacity:1;"
         offset="0"
         id="stop14" /><stop
         style="stop-color:#fb4040;stop-opacity:1;"
         offset="1"
         id="stop15" /></linearGradient><linearGradient
       inkscape:collect="always"
       xlink:href="#linearGradient14"
       id="linearGradient15"
       x1="97.871498"
       y1="15.519266"
       x2="95.618706"
       y2="119.14791"
       gradientUnits="userSpaceOnUse" /><linearGradient
       inkscape:collect="always"
       xlink:href="#linearGradient18"
       id="linearGradient17"
       x1="98.372124"
       y1="118.14667"
       x2="97.871498"
       y2="191.48772"
       gradientUnits="userSpaceOnUse" /></defs><g
     inkscape:label="Layer 1"
     inkscape:groupmode="layer"
     id="layer1"><path
       id="rect8"
       style="display:inline;fill:url(#linearGradient17);fill-opacity:1;stroke:none;stroke-width:1.057;stroke-linecap:round;stroke-linejoin:round;stroke-dasharray:none;stroke-opacity:1;paint-order:stroke fill markers"
       d="m 82.366302,107.61394 c 0,0 -0.782785,19.46511 -1.501865,29.17711 -1.216377,16.42857 -17.849516,48.05247 -4.755904,49.19124 19.155177,1.66595 24.006657,1.82147 44.956947,0 13.09364,-1.13839 -3.53952,-32.76267 -4.7559,-49.19124 -0.71908,-9.712 -1.50187,-29.17711 -1.50187,-29.17711 z"
       sodipodi:nodetypes="csssscc" /><path
       id="path1"
       style="fill:#000000;fill-opacity:0.120968;stroke:#2f2f2f;stroke-width:0;stroke-linecap:round;stroke-linejoin:round;paint-order:stroke fill markers"
       d="M 97.170813 110.97669 A 38.58522 11.239273 0 0 0 82.178963 111.87844 C 81.993751 116.27363 81.626049 124.46652 81.136133 132.41621 A 38.58522 11.239273 0 0 0 97.170813 133.45542 A 38.58522 11.239273 0 0 0 116.01256 132.00745 C 115.54423 124.30575 115.20248 116.76115 115.01158 112.25258 A 38.58522 11.239273 0 0 0 97.170813 110.97669 z " /><path
       id="path7"
       style="display:inline;fill:url(#linearGradient15);fill-opacity:1;stroke:none;stroke-width:1.057;stroke-linecap:round;stroke-linejoin:round;paint-order:stroke fill markers"
       inkscape:transform-center-x="1.2361803e-06"
       inkscape:transform-center-y="-13.954825"
       d="m 98.121812,14.257295 c 35.717028,0.585186 90.687598,47.944488 90.687588,84.016357 -1e-5,23.682118 -67.00547,23.551308 -90.687591,23.551308 -23.68212,0 -94.3702573,0.28241 -95.466491,-23.374318 C 0.88535476,60.254819 65.592487,13.724337 98.121812,14.257295 Z"
       sodipodi:nodetypes="sssss" /><path
       id="path9"
       style="display:inline;fill:#feeac9;fill-opacity:1;stroke:none;stroke-width:1.01294;stroke-linecap:round;stroke-linejoin:round;stroke-dasharray:none;stroke-opacity:1;paint-order:stroke fill markers"
       d="M 25.618075,52.70531 C 15.933179,62.603423 8.310666,73.508379 4.7805868,84.301314 A 12.067916,20.243948 29.133155 0 0 5.9629435,86.643807 12.067916,20.243948 29.133155 0 0 25.781889,81.663749 12.067916,20.243948 29.133155 0 0 30.650326,55.786776 12.067916,20.243948 29.133155 0 0 25.618075,52.70531 Z" /><path
       id="path10"
       style="display:inline;fill:#feeac9;fill-opacity:1;stroke:none;stroke-width:1.057;stroke-linecap:round;stroke-linejoin:round;stroke-dasharray:none;stroke-opacity:1;paint-order:stroke fill markers"
       d="m 65.300407,84.415519 a 33.041019,24.780762 0 0 0 -33.040877,24.780921 33.041019,24.780762 0 0 0 2.135787,8.60205 c 20.23203,3.73184 44.803556,3.99421 59.204655,4.01268 A 33.041019,24.780762 0 0 0 98.341284,109.19644 33.041019,24.780762 0 0 0 65.300407,84.415519 Z" /><ellipse
       style="display:inline;fill:#feeac9;fill-opacity:1;stroke:none;stroke-width:1.07928;stroke-linecap:round;stroke-linejoin:round;stroke-dasharray:none;stroke-opacity:1;paint-order:stroke fill markers"
       id="path11"
       cx="77.820824"
       cy="26.638325"
       rx="9.9678802"
       ry="12.395953"
       transform="rotate(20.433694)" /><ellipse
       style="display:inline;fill:#feeac9;fill-opacity:1;stroke:none;stroke-width:0.681888;stroke-linecap:round;stroke-linejoin:round;stroke-dasharray:none;stroke-opacity:1;paint-order:stroke fill markers"
       id="ellipse11"
       cx="0.42539883"
       cy="-111.90687"
       rx="6.2976966"
       ry="7.8317504"
       transform="rotate(105.58784)" /><path
       id="path13"
       style="display:inline;fill:#feeac9;fill-opacity:1;stroke:none;stroke-width:1.057;stroke-linecap:round;stroke-linejoin:round;stroke-dasharray:none;stroke-opacity:1;paint-order:stroke fill markers"
       d="m 169.11526,97.828654 a 27.409025,16.895975 0 0 0 -27.40866,16.895606 27.409025,16.895975 0 0 0 1.48259,5.32733 c 20.78979,-2.14746 40.67195,-6.90699 44.82311,-17.53072 a 27.409025,16.895975 0 0 0 -18.89704,-4.692216 z" /><path
       id="path12"
       style="display:inline;fill:#feeac9;fill-opacity:1;stroke:none;stroke-width:1.057;stroke-linecap:round;stroke-linejoin:round;stroke-dasharray:none;stroke-opacity:1;paint-order:stroke fill markers"
       d="m 149.91075,43.915666 a 33.541641,16.770821 0 0 0 -33.54163,16.770552 33.541641,16.770821 0 0 0 33.54163,16.77107 33.541641,16.770821 0 0 0 29.06489,-8.534363 C 173.67997,60.368039 166.58465,52.014151 158.51901,44.503743 a 33.541641,16.770821 0 0 0 -8.60826,-0.588077 z" /></g></svg>

<?xml version="1.0" encoding="UTF-8" standalone="no"?>
<!-- Created with Inkscape (http://www.inkscape.org/) -->

<svg
   width="192mm"
   height="192mm"
   viewBox="0 0 192 192"
   version="1.1"
   id="svg1"
   xml:space="preserve"
   inkscape:version="1.3.2 (091e20e, 2023-11-25, custom)"
   sodipodi:docname="mushroom.svg"
   inkscape:export-filename="..\assets\sprites\mushroom.png"
   inkscape:export-xdpi="25.4"
   inkscape:export-ydpi="25.4"
   xmlns:inkscape="http://www.inkscape.org/namespaces/inkscape"
   xmlns:sodipodi="http://sodipodi.sourceforge.net/DTD/sodipodi-0.dtd"
   xmlns:xlink="http://www.w3.org/1999/xlink"
   xmlns="http://www.w3.org/2000/svg"
   xmlns:svg="http://www.w3.org/2000/svg"><sodipodi:namedview
     id="namedview1"
     pagecolor="#ffffff"
     bordercolor="#999999"
     borderopacity="1"
     inkscape:showpageshadow="0"
     inkscape:pageopacity="0"
     inkscape:pagecheckerboard="0"
     inkscape:deskcolor="#d1d1d1"
     inkscape:document-units="mm"
     inkscape:zoom="0.74742565"
     inkscape:cx="98.337541"
     inkscape:cy="352.54343"
     inkscape:window-width="2560"
     inkscape:window-height="1017"
     inkscape:window-x="1912"
     inkscape:window-y="-8"
     inkscape:window-maximized="1"
     inkscape:current-layer="layer1" /><defs
     id="defs1"><linearGradient
       id="linearGradient18"
       inkscape:collect="always"><stop
         style="stop-color:#f0be65;stop-opacity:1;"
         offset="0"
         id="stop17" /><stop
         style="stop-color:#f6deb6;stop-opacity:1;"
         offset="0.16958041"
         id="stop19" /><stop
         style="stop-color:#f2ca83;stop-opacity:1;"
         offset="1"
         id="stop18" /></linearGradient><linearGradient
       id="linearGradient14"
       inkscape:collect="always"><stop
         style="stop-color:#f7908a;stop-opacity:1;"
         offset="0"
         id="stop14" /><stop
         style="stop-color:#fb5454;stop-opacity:1;"
         offset="1"
         id="stop15" /></linearGradient><linearGradient
       inkscape:collect="always"
       xlink:href="#linearGradient14"
       id="linearGradient15"
       x1="97.871498"
       y1="15.519266"
       x2="95.618706"
       y2="119.14791"
       gradientUnits="userSpaceOnUse" /><linearGradient
       inkscape:collect="always"
       xlink:href="#linearGradient18"
       id="linearGradient17"
       x1="98.372124"
       y1="118.14667"
       x2="97.871498"
       y2="191.48772"
       gradientUnits="userSpaceOnUse" /></defs><g
     inkscape:label="Layer 1"
     inkscape:groupmode="layer"
     id="layer1"><path
       id="rect8"
       style="display:inline;fill:url(#linearGradient17);fill-opacity:1;stroke:none;stroke-width:1.057;stroke-linecap:round;stroke-linejoin:round;stroke-dasharray:none;stroke-opacity:1;paint-order:stroke fill markers"
       d="m 82.366302,107.61394 c 0,0 -0.782785,19.46511 -1.501865,29.17711 -1.216377,16.42857 -17.849516,48.05247 -4.755904,49.19124 19.155177,1.66595 24.006657,1.82147 44.956947,0 13.09364,-1.13839 -3.53952,-32.76267 -4.7559,-49.19124 -0.71908,-9.712 -1.50187,-29.17711 -1.50187,-29.17711 z"
       sodipodi:nodetypes="csssscc" /><path
       id="path7"
       style="display:inline;fill:url(#linearGradient15);fill-opacity:1;stroke:none;stroke-width:1.057;stroke-linecap:round;stroke-linejoin:round;paint-order:stroke fill markers"
       inkscape:transform-center-x="1.2361803e-06"
       inkscape:transform-center-y="-13.954825"
       d="m 98.121812,14.257295 c 35.717028,0.585186 90.687598,47.944488 90.687588,84.016357 -1e-5,23.682118 -67.00547,23.551308 -90.687591,23.551308 -23.68212,0 -94.3702573,0.28241 -95.466491,-23.374318 C 0.88535476,60.254819 65.592487,13.724337 98.121812,14.257295 Z"
       sodipodi:nodetypes="sssss" /><path
       id="path9"
       style="display:inline;fill:#feeac9;fill-opacity:1;stroke:none;stroke-width:1.01294;stroke-linecap:round;stroke-linejoin:round;stroke-dasharray:none;stroke-opacity:1;paint-order:stroke fill markers"
       d="M 25.618075 52.70531 C 15.933179 62.603423 8.310666 73.508379 4.7805868 84.301314 A 12.067916 20.243948 29.133155 0 0 5.9629435 86.643807 A 12.067916 20.243948 29.133155 0 0 25.781889 81.663749 A 12.067916 20.243948 29.133155 0 0 30.650326 55.786776 A 12.067916 20.243948 29.133155 0 0 25.618075 52.70531 z " /><path
       id="path10"
       style="display:inline;fill:#feeac9;fill-opacity:1;stroke:none;stroke-width:1.057;stroke-linecap:round;stroke-linejoin:round;stroke-dasharray:none;stroke-opacity:1;paint-order:stroke fill markers"
       d="M 65.300407 84.415519 A 33.041019 24.780762 0 0 0 32.25953 109.19644 A 33.041019 24.780762 0 0 0 34.395317 117.79849 C 54.627347 121.53033 79.198873 121.7927 93.599972 121.81117 A 33.041019 24.780762 0 0 0 98.341284 109.19644 A 33.041019 24.780762 0 0 0 65.300407 84.415519 z " /><ellipse
       style="display:inline;fill:#feeac9;fill-opacity:1;stroke:none;stroke-width:1.07928;stroke-linecap:round;stroke-linejoin:round;stroke-dasharray:none;stroke-opacity:1;paint-order:stroke fill markers"
       id="path11"
       cx="77.820824"
       cy="26.638325"
       rx="9.9678802"
       ry="12.395953"
       transform="rotate(20.433694)" /><ellipse
       style="display:inline;fill:#feeac9;fill-opacity:1;stroke:none;stroke-width:0.681888;stroke-linecap:round;stroke-linejoin:round;stroke-dasharray:none;stroke-opacity:1;paint-order:stroke fill markers"
       id="ellipse11"
       cx="0.42539883"
       cy="-111.90687"
       rx="6.2976966"
       ry="7.8317504"
       transform="rotate(105.58784)" /><path
       id="path13"
       style="display:inline;fill:#feeac9;fill-opacity:1;stroke:none;stroke-width:1.057;stroke-linecap:round;stroke-linejoin:round;stroke-dasharray:none;stroke-opacity:1;paint-order:stroke fill markers"
       d="M 169.11526 97.828654 A 27.409025 16.895975 0 0 0 141.7066 114.72426 A 27.409025 16.895975 0 0 0 143.18919 120.05159 C 163.97898 117.90413 183.86114 113.1446 188.0123 102.52087 A 27.409025 16.895975 0 0 0 169.11526 97.828654 z " /><path
       id="path12"
       style="display:inline;fill:#feeac9;fill-opacity:1;stroke:none;stroke-width:1.057;stroke-linecap:round;stroke-linejoin:round;stroke-dasharray:none;stroke-opacity:1;paint-order:stroke fill markers"
       d="M 149.91075 43.915666 A 33.541641 16.770821 0 0 0 116.36912 60.686218 A 33.541641 16.770821 0 0 0 149.91075 77.457288 A 33.541641 16.770821 0 0 0 178.97564 68.922925 C 173.67997 60.368039 166.58465 52.014151 158.51901 44.503743 A 33.541641 16.770821 0 0 0 149.91075 43.915666 z " /></g></svg>
